X: 39619
T: Tempest, The
R: jig
M: 6/8
K: Gmajor
|:B>BB g2d|e2e efg|ded cBA|GBB B2A|
B>BB g2d|e2e efg|ded cBA|G3 G3:|
|:b2g a2f|gfe d2c|B>BB g2d|(3cB>AA A2g|
b2g a2f|gfe d2c|B>BB cBA|G3 g3:|

